X:110
T:Irish Gigg
O:No 110 Wm Clarke MS  Feltwell, Norfolk
N:No key sig given but probably D
I:abc2nwc
M:9/8
L:1/8
K:D
"^*"D|:F2A ABA ABA|F2A ABA Bcd|
F2A ABA ABA|B2e efd cBA:|
|:f2a f2a gfe|f2a f2a g2e|f2a f2a fed|e2f ged cBA:|
|:f3a3d3|e2f ged cBA|f3a3d3|ABc dBA GFE:|

